exported-svg/git-merge.svg

<svg height="24" viewBox="0 0 24 24" width="24" xmlns="http://www.w3.org/2000/svg"><path d="m15.0372383 17.9876172c.2479263-1.690106 1.703819-2.9876172 3.4627617-2.9876172 1.9329966 0 3.5 1.5670034 3.5 3.5s-1.5670034 3.5-3.5 3.5c-1.7671276 0-3.2283783-1.3096147-3.4661442-3.0112364-3.5216074-.1701538-6.54008594-2.2578362-8.0338558-5.2414674v7.7527038c0 .2761424-.22385763.5-.5.5s-.5-.2238576-.5-.5v-11.53544443c-1.69614707-.24261483-3-1.70131962-3-3.46455557 0-1.93299662 1.56700338-3.5 3.5-3.5s3.5 1.56700338 3.5 3.5c0 1.75894266-1.29751117 3.21483535-2.98761718 3.46276173.2320978 4.32601297 3.69884248 7.79275767 8.02485548 8.02485547zm3.4627617 3.0123828c1.3807119 0 2.5-1.1192881 2.5-2.5s-1.1192881-2.5-2.5-2.5-2.5 1.1192881-2.5 2.5 1.1192881 2.5 2.5 2.5zm-12-12c1.38071187 0 2.5-1.11928813 2.5-2.5s-1.11928813-2.5-2.5-2.5-2.5 1.11928813-2.5 2.5 1.11928813 2.5 2.5 2.5z"/></svg>

<?xml version="1.0" encoding="UTF-8"?>
<svg width="24px" height="24px" viewBox="0 0 24 24" version="1.1" xmlns="http://www.w3.org/2000/svg" xmlns:xlink="http://www.w3.org/1999/xlink">
    <!-- Generator: Sketch 55.2 (78181) - https://sketchapp.com -->
    <title>git-merge</title>
    <desc>Created with Sketch.</desc>
    <g id="git-merge" stroke="none" stroke-width="1" fill="none" fill-rule="evenodd">
        <path d="M15.0372383,17.9876172 C15.2851646,16.2975112 16.7410573,15 18.5,15 C20.4329966,15 22,16.5670034 22,18.5 C22,20.4329966 20.4329966,22 18.5,22 C16.7328724,22 15.2716217,20.6903853 15.0338558,18.9887636 C11.5122484,18.8186098 8.49376986,16.7309274 7,13.7472962 L7,21.5 C7,21.7761424 6.77614237,22 6.5,22 C6.22385763,22 6,21.7761424 6,21.5 L6,9.96455557 C4.30385293,9.72194074 3,8.26323595 3,6.5 C3,4.56700338 4.56700338,3 6.5,3 C8.43299662,3 10,4.56700338 10,6.5 C10,8.25894266 8.70248883,9.71483535 7.01238282,9.96276173 C7.24448062,14.2887747 10.7112253,17.7555194 15.0372383,17.9876172 Z M18.5,21 C19.8807119,21 21,19.8807119 21,18.5 C21,17.1192881 19.8807119,16 18.5,16 C17.1192881,16 16,17.1192881 16,18.5 C16,19.8807119 17.1192881,21 18.5,21 Z M6.5,9 C7.88071187,9 9,7.88071187 9,6.5 C9,5.11928813 7.88071187,4 6.5,4 C5.11928813,4 4,5.11928813 4,6.5 C4,7.88071187 5.11928813,9 6.5,9 Z" id="Combined-Shape" fill="#000000" fill-rule="nonzero"></path>
    </g>
</svg>
